X:1
T:Will He Bid Us Enter In?
T:D. Y. Bagby
T:Will He Bid Us Enter In?
T:Public Domain
T:Public Domain
T:Public Domain
C:D. Y. Bagby
Z:Public Domain
%%score ( 1 2 ) ( 3 4 )
L:1/8
M:3/4
K:Eb
V:1 treble 
V:2 treble 
V:3 bass 
V:4 bass 
V:1
 E>[EF] | [EG]3 [GB] [Ac][GB] | [Ge]2 [GB]2 E>[EF] | [EG]3 [GB] [Ac][GB] | [DF]4 E>[EF] | %5
w: 1.~Life is|be- set with sor-|rows, Tri- als come|ev- ery hand; Fain|would care- worn|
w: 2.~Oft we|ble by the way-|side When temp- ta-|spread a- round; Thus|to lure us|
w: 3.~Yes, we’ll|our time with pa-|tience, Bat- tling with|hosts of sin; If|we’re faith- ful|
 [EG]3 [GB] [Ac][GB] | [Ge]2 [GB]2 [Ge]>[Ge] | [Fd]3 [DB] [Ec][E=A] | [DB]4 [DF]>[EG] | %9
w: grims bor- row Plea-|sures from the glo-|ry land; But we|bide our time|
w: our du- ty Sa-|tan seeks to drag|us down; But like|ser- pent- bit-|
w: the Mas- ter, He|will bid us en-|ter in; When we’ve|passed the pearl-|
 [FA]3 [FA] [DB][DF] | [FA]2 [EG]2 [EG]>[EG] | [Ec]3 [Ec] [Fd][FG] | [Ee]4 [Ge]>[Bd] | %13
w: with pa- tience, Wai-|ting till our Lord|shall come, Wai- ting|till the Mas-|
w: ten Is- rael, We|can lift our trust-|ing eyes To the|cross of our|
w: y gate- way, When|we’ve reached the glo-|ry land, Pain and|tears will all|
 [Ac]3 [ce] [Bd][Ac] | [GB]2 [EG]2 E>[EF] | [EG]3 [EB] [DF][DG] | E4 ||"^Refrain" [Ac]>[Ac] | %18
w: ter bids us En-|ter our e- ter-|home. * * *|||
w: Re- deem- er And|our home be- yond|skies. Are we rea-|dy?|we rea-|
w: be ban- ished By|the lov- ing Fa-|hand. * * *|||
 [Ac] [GB]3 [FA]>[DB] | [FA] [EG]3 [GB]>[EB] | [DB]3 [DF] [Fd][Ec] | [DB]4 [EG]>[FA] | %22
w: ||||
w: dy? Will we hear|the wel- come voice|Bid us en- ter|in- to glo-|
w: ||||
 [GB]3 [EG] [Ge][Bd] | [Ac]2 [Ae]2 [Ad]>[Ac] | [GB]3 [EG] [DF][DG] | E6 |] %26
w: ||||
w: ry, And with ran-|somed souls re- joice?|||
w: ||||
V:2
 E3/2 x/ | x6 | x4 E3/2 x/ | x6 | x4 E3/2 x/ | x6 | x6 | x6 | x6 | x6 | x6 | x6 | x6 | x6 | %14
w: oft||on||pil-||||||||||
w: stum-||tions||from||||||||||
w: bide||the||to||||||||||
 x4 E3/2 x/ | x6 | E4 || x2 | x6 | x6 | x6 | x6 | x6 | x6 | x6 | E6 |] %26
w: nal||||||||||||
w: the||Are||||||||||
w: ther’s||||||||||||
V:3
 [E,G,]>[E,A,] | [E,B,]3 [E,E] [E,E][E,E] | [E,B,]2 [E,E]2 [E,G,]>[E,A,] | %3
 [E,B,]3 [E,E] [E,E][G,B,] | B,4 [E,G,]>[E,A,] | [E,B,]3 [E,E] [E,E][E,E] | %6
 [E,B,]2 [E,E]2 [E,B,]>[E,B,] | [F,B,]3 F, F,F, | [B,,F,]4 [B,,B,]>[B,,B,] | %9
 [B,,B,]3 [B,,B,] [B,,B,][B,,B,] | [E,B,]2 [E,B,]2 [E,B,]>[E,G,] | [C,G,]3 [C,G,] [G,=B,][G,B,] | %12
 [C,C]4 [E,B,]>[G,E] | [A,E]3 [A,E] [A,E][A,E] | [E,E]2 [E,B,]2 [E,G,]>[C,=A,] | %15
 [B,,B,]3 [B,,G,] [B,,A,][B,,B,] | [E,G,]4 || [A,,E]>[C,E] | [E,E] [E,E]3 [B,,D]>[B,,B,] | %19
 [E,B,] [E,B,]3 [E,B,]>[E,G,] | F,3 [F,B,] [F,B,][F,=A,] | [B,,B,]4 [E,B,]>[E,B,] | %22
 [E,E]3 [E,B,] [E,B,][G,E] | [A,E]2 [A,C]2 [A,E]>[A,E] | [B,E]3 B, [B,,A,][B,,A,] | [E,G,]6 |] %26
V:4
 x2 | x6 | x6 | x6 | B,4 x2 | x6 | x6 | x3 F, F,F, | x6 | x6 | x6 | x6 | x6 | x6 | x6 | x6 | x4 || %17
 x2 | x6 | x6 | F,3 x3 | x6 | x6 | x6 | x3 B, x2 | x6 |] %26

